X:1
T: Miss (Dr) Grant's Reel
C:
R:Jig
Q:180
K:D
M:6/8
L:1/16
c2|d4A2 A2F2A2|A2F2A2 A2B2c2|d4A2 A2F2D2|E2C2A,2 E2F2G2|d4A2 A2F2A2|A2F2A2 A2B2c2|d2e2f2 g2e2c2|d2d2d2 d4c2|
d4A2 A2F2A2|A2F2A2 A2B2c2|d4A2 A2F2D2|E2C2A,2 E2F2G2|d4A2 A2F2A2|A2F2A2 A2B2c2|d2e2f2 g2e2c2|d2d2d2 d4g2|
a2f2d2 a2f2d2|e2g2b2 b2g2e2|a2f2d2 a2f2d2|e2f2d2 c2B2A2|a2f2d2 a2f2d2|e2g2b2 b2g2e2|f2g2a2 g2f2e2|d2A2F2 D4fg|
a2f2d2 a2f2d2|e2g2b2 b2g2e2|a2f2d2 a2f2d2|e2f2d2 c2B2A2|B2c2d2 e2f2g2|A2B2c2 d2e2f2|e2b2a2 g2f2e2|d2d2d2 d4||
